X:1563
T:McBride's
O:ireland
R:reel
D:Moving Hearts
Z:id:hn-reel-590
M:C|
K:Edor
Bgfg edBd|~e3d Bcdc|Bgfg edBd|~e3d Bcdc|
Bgfg edBd|~e3d efg2|egfd BGdB|A2GA BGdA:|
|:Beed edBc|dcde ~f3a|ge~e2 edBG|A2GA BGed|
Beed edBc|dcde fa~a2|gBeg fdBG|1 A2GA BGed:|2 A2GA BG~G2||
|:b2gb abge|fedB dega|b2gb abge|Bdeg fedB|
b2gb abge|fedB dega|gBeg fdBG|1 A2GA BG~G2:|2 A2GA BAdA||
